X:1
T: The Percolator
N:
C:
S:tune is: Leather Away the Wattle O
A:
O:
R:
M:4/4
K:D
I:speed 228
%W: A1
% voice 1 (1 lines, 38 notes)
K:D
M:4/4
L:1/16
f2 e2 |d4 A4 F4 A4 |d6 d2 d4 f4 |e4 d4 c4 d4 |e4 f4 g4 f2 g2 |a4 f4 g4 e4 |d4 c4 A4 F4 |G4 B4 A2 B2 A2 G2 |F4 D4 D4 f2 g2 |
%W: A2
% voice 1 (1 lines, 35 notes)
d4 A4 F4 A4 |d6 d2 d4 f4 |e4 d4 c4 d4 |e4 f4 g4 f2 g2 |a4 f4 g4 e4 |d4 c4 A4 F4 |G4 B4 A2 B2 A2 G2 |F4 D4 D4 e4 |
%W: B1
% voice 1 (1 lines, 38 notes)
f4 f2 f2 f4 d4 |g4 g2 g2 g4 e4 |f4 f2 f2 f4 a4 |g4 f4 e4 f2 g2 |a4 f4 g4 e4 |d4 c4 A4 F4 |G4 B4 A2 B2 A2 G2 |F4 D4 D4 e4 |
%W: B2
% voice 1 (1 lines, 37 notes)
f4 f2 f2 f4 d4 |g4 g2 g2 g4 e4 |f4 f2 f2 f4 a4 |g4 f4 e4 f2 g2 |a4 f4 g4 e4 |d4 c4 A4 F4 |G4 B4 A2 B2 A2 G2 |F4 D4 D4 ||
